;FLAVOR:Marlin
;TIME:53783
;Filament used: 44.6908m
;Layer height: 0.2
;MINX:56.641
;MINY:66.669
;MINZ:0.2
;MAXX:178.641
;MAXY:168.669
;MAXZ:147.8
;Generated with Cura_SteamEngine 4.6.1
M140 S60
M105
M190 S60
M104 S200
M105
M109 S200
M82 ;absolute extrusion mode
; Ender 3 Custom Start G-code
G92 E0 ; Reset Extruder
G28 ; Home all axes
G1 Z2.0 F3000 ; Move Z Axis up little to prevent scratching of Heat Bed
G1 X0.1 Y20 Z0.3 F5000.0 ; Move to start position
G1 X0.1 Y200.0 Z0.3 F1500.0 E15 ; Draw the first line
G1 X0.4 Y200.0 Z0.3 F5000.0 ; Move to side a little
G1 X0.4 Y20 Z0.3 F1500.0 E30 ; Draw the second line
G92 E0 ; Reset Extruder
G1 Z2.0 F3000 ; Move Z Axis up little to prevent scratching of Heat Bed
G1 X5 Y20 Z0.3 F5000.0 ; Move over to prevent blob squish
G92 E0
G92 E0
G1 F1500 E-6.5
;LAYER_COUNT:740
;LAYER:0
M107
G0 F6000 X167.778 Y67.48 Z0.2
;TYPE:SKIRT
G1 F1500 E0
G1 F1200 X168.68 Y67.533 E0.03005
G1 X169.573 Y67.665 E0.06008
G1 X170.451 Y67.876 E0.09011
G1 X171.307 Y68.164 E0.12015
G1 X172.134 Y68.526 E0.15018
G1 X172.926 Y68.961 E0.18023
G1 X173.677 Y69.463 E0.21027
G1 X174.38 Y70.03 E0.24031
G1 X175.03 Y70.657 E0.27035
G1 X175.622 Y71.339 E0.30039
G1 X176.152 Y72.07 E0.33042
G1 X176.614 Y72.846 E0.36046
G1 X177.007 Y73.659 E0.39049
G1 X177.325 Y74.504 E0.42052
G1 X177.568 Y75.374 E0.45056
G1 X177.733 Y76.262 E0.4806
G1 X177.828 Y77.392 E0.51832
G1 X177.841 Y77.999 E0.53851
G1 X177.841 Y156.933 E3.16387
G1 X177.831 Y157.786 E3.19224
G1 X177.78 Y158.688 E3.22229
G1 X177.649 Y159.582 E3.25234
G1 X177.44 Y160.46 E3.28236
G1 X177.154 Y161.317 E3.31241
G1 X176.793 Y162.145 E3.34245
G1 X176.361 Y162.937 E3.37246
G1 X175.86 Y163.689 E3.40251
G1 X175.294 Y164.393 E3.43256
G1 X174.669 Y165.044 E3.46257
G1 X173.988 Y165.638 E3.49263
G1 X173.257 Y166.169 E3.52268
G1 X172.483 Y166.633 E3.5527
G1 X171.67 Y167.027 E3.58274
G1 X170.826 Y167.347 E3.61277
G1 X169.956 Y167.592 E3.64283
G1 X169.069 Y167.758 E3.67284
G1 X167.918 Y167.856 E3.71126
G1 X167.311 Y167.869 E3.73146
G1 X68.348 Y167.869 E7.02298
G1 X67.518 Y167.859 E7.05059
G1 X66.617 Y167.808 E7.0806
G1 X65.723 Y167.676 E7.11066
G1 X64.845 Y167.467 E7.14068
G1 X63.988 Y167.18 E7.17074
G1 X63.161 Y166.819 E7.20075
G1 X62.368 Y166.386 E7.2308
G1 X61.617 Y165.885 E7.26083
G1 X60.913 Y165.319 E7.29087
G1 X60.262 Y164.693 E7.32091
G1 X59.669 Y164.012 E7.35094
G1 X59.139 Y163.281 E7.38098
G1 X58.675 Y162.506 E7.41102
G1 X58.281 Y161.693 E7.44107
G1 X57.961 Y160.849 E7.47109
G1 X57.717 Y159.979 E7.50114
G1 X57.551 Y159.091 E7.53119
G1 X57.454 Y157.936 E7.56974
G1 X57.441 Y157.327 E7.59
G1 X57.441 Y78.343 E10.21702
G1 X57.451 Y77.54 E10.24373
G1 X57.503 Y76.638 E10.27378
G1 X57.635 Y75.745 E10.3038
G1 X57.845 Y74.867 E10.33383
G1 X58.132 Y74.01 E10.36389
G1 X58.494 Y73.183 E10.39391
G1 X58.927 Y72.391 E10.42394
G1 X59.429 Y71.64 E10.45398
G1 X59.996 Y70.936 E10.48405
G1 X60.622 Y70.286 E10.51406
G1 X61.303 Y69.693 E10.54409
G1 X62.035 Y69.163 E10.57415
G1 X62.81 Y68.7 E10.60418
G1 X63.623 Y68.307 E10.63421
G1 X64.468 Y67.987 E10.66427
G1 X65.337 Y67.744 E10.69428
G1 X66.225 Y67.578 E10.72432
G1 X67.364 Y67.482 E10.76234
G1 X67.971 Y67.469 E10.78253
G1 X166.934 Y67.469 E14.07406
G1 X167.08 Y67.47 E14.07891
G1 X167.778 Y67.48 E14.10213
G0 F6000 X167.784 Y67.08
G1 F1200 X168.703 Y67.133 E14.13275
G1 X169.614 Y67.266 E14.16337
G1 X170.51 Y67.477 E14.19399
G1 X171.384 Y67.765 E14.22459
G1 X172.231 Y68.128 E14.25524
G1 X173.042 Y68.563 E14.28585
G1 X173.812 Y69.067 E14.31646
G1 X174.536 Y69.636 E14.34709
G1 X175.208 Y70.266 E14.37772
G1 X175.823 Y70.951 E14.40834
G1 X176.376 Y71.687 E14.43896
G1 X176.863 Y72.468 E14.46957
G1 X177.28 Y73.289 E14.5002
G1 X177.625 Y74.143 E14.53084
G1 X177.894 Y75.023 E14.56144
G1 X178.086 Y75.924 E14.59208
G1 X178.199 Y76.837 E14.62268
G1 X178.228 Y77.381 E14.6408
G1 X178.241 Y77.999 E14.66136
G1 X178.241 Y156.933 E17.28671
G1 X178.231 Y157.791 E17.31525
G1 X178.18 Y158.71 E17.34587
G1 X178.049 Y159.622 E17.37651
G1 X177.839 Y160.518 E17.40712
G1 X177.553 Y161.393 E17.43774
G1 X177.192 Y162.24 E17.46836
G1 X176.758 Y163.052 E17.49898
G1 X176.256 Y163.824 E17.52961
G1 X175.688 Y164.549 E17.56024
G1 X175.06 Y165.222 E17.59086
G1 X174.376 Y165.838 E17.62148
G1 X173.641 Y166.392 E17.65209
G1 X172.861 Y166.881 E17.68271
G1 X172.041 Y167.3 E17.71334
G1 X171.188 Y167.646 E17.74395
G1 X170.308 Y167.917 E17.77458
G1 X169.408 Y168.11 E17.80519
G1 X168.494 Y168.225 E17.83583
G1 X167.929 Y168.256 E17.85465
G1 X167.311 Y168.269 E17.87521
G1 X68.348 Y168.269 E21.16673
G1 X67.513 Y168.259 E21.19451
G1 X66.594 Y168.207 E21.22512
G1 X65.683 Y168.076 E21.25573
G1 X64.787 Y167.866 E21.28634
G1 X63.912 Y167.579 E21.31697
G1 X63.065 Y167.217 E21.34761
G1 X62.253 Y166.783 E21.37823
G1 X61.482 Y166.281 E21.40883
G1 X60.757 Y165.713 E21.43946
G1 X60.084 Y165.084 E21.4701
G1 X59.469 Y164.4 E21.5007
G1 X58.915 Y163.665 E21.53131
G1 X58.427 Y162.884 E21.56194
G1 X58.008 Y162.064 E21.59257
G1 X57.662 Y161.211 E21.62318
G1 X57.392 Y160.331 E21.6538
G1 X57.199 Y159.43 E21.68444
G1 X57.085 Y158.517 E21.71505
G1 X57.054 Y157.946 E21.73407
G1 X57.041 Y157.327 E21.75466
G1 X57.041 Y78.343 E24.38168
G1 X57.051 Y77.535 E24.40855
G1 X57.103 Y76.615 E24.4392
G1 X57.235 Y75.704 E24.46982
G1 X57.446 Y74.808 E24.50043
G1 X57.733 Y73.933 E24.53106
G1 X58.096 Y73.087 E24.56168
G1 X58.53 Y72.275 E24.5923
G1 X59.033 Y71.504 E24.62292
G1 X59.602 Y70.78 E24.65355
G1 X60.23 Y70.108 E24.68414
G1 X60.915 Y69.492 E24.71478
G1 X61.651 Y68.939 E24.7454
G1 X62.432 Y68.451 E24.77603
G1 X63.252 Y68.033 E24.80664
G1 X64.106 Y67.688 E24.83728
G1 X64.986 Y67.418 E24.86789
G1 X65.886 Y67.226 E24.8985
G1 X66.8 Y67.112 E24.92914
G1 X67.353 Y67.082 E24.94756
G1 X67.971 Y67.069 E24.96812
G1 X166.934 Y67.069 E28.25964
G1 X167.086 Y67.07 E28.26469
G1 X167.784 Y67.08 E28.28791
G0 F6000 X167.79 Y66.68
G1 F1200 X168.726 Y66.734 E28.3191
G1 X169.654 Y66.866 E28.35027
G1 X170.568 Y67.078 E28.38148
G1 X171.46 Y67.367 E28.41266
G1 X172.325 Y67.73 E28.44387
G1 X173.155 Y68.166 E28.47505
G1 X173.946 Y68.671 E28.50626
G1 X174.69 Y69.242 E28.53745
G1 X175.383 Y69.874 E28.56865
G1 X176.02 Y70.562 E28.59983
G1 X176.595 Y71.303 E28.63103
G1 X177.106 Y72.089 E28.66221
G1 X177.548 Y72.917 E28.69343
G1 X177.917 Y73.779 E28.72462
G1 X178.212 Y74.669 E28.7558
G1 X178.43 Y75.581 E28.78699
G1 X178.57 Y76.509 E28.8182
G1 X178.628 Y77.37 E28.84691
G1 X178.641 Y77.999 E28.86783
G1 X178.641 Y156.933 E31.49319
G1 X178.631 Y157.796 E31.52189
G1 X178.58 Y158.733 E31.5531
G1 X178.448 Y159.661 E31.58428
G1 X178.239 Y160.575 E31.61546
G1 X177.952 Y161.468 E31.64666
G1 X177.59 Y162.334 E31.67788
G1 X177.156 Y163.165 E31.70906
G1 X176.652 Y163.956 E31.74026
G1 X176.083 Y164.701 E31.77144
G1 X175.452 Y165.396 E31.80266
G1 X174.765 Y166.034 E31.83384
G1 X174.026 Y166.611 E31.86502
G1 X173.24 Y167.123 E31.89622
G1 X172.414 Y167.566 E31.9274
G1 X171.552 Y167.938 E31.95862
G1 X170.663 Y168.234 E31.98979
G1 X169.751 Y168.454 E32.02099
G1 X168.824 Y168.595 E32.05218
G1 X167.94 Y168.656 E32.08165
G1 X167.311 Y168.669 E32.10258
G1 X68.348 Y168.669 E35.3941
G1 X67.508 Y168.659 E35.42204
G1 X66.572 Y168.607 E35.45322
G1 X65.643 Y168.475 E35.48443
G1 X64.729 Y168.265 E35.51562
G1 X63.836 Y167.978 E35.54682
G1 X62.971 Y167.615 E35.57802
G1 X62.14 Y167.181 E35.6092
G1 X61.349 Y166.677 E35.64039
G1 X60.604 Y166.107 E35.67159
G1 X59.91 Y165.476 E35.70279
G1 X59.273 Y164.789 E35.73395
G1 X58.696 Y164.049 E35.76516
G1 X58.184 Y163.263 E35.79636
G1 X57.741 Y162.436 E35.82757
G1 X57.37 Y161.575 E35.85875
G1 X57.074 Y160.685 E35.88994
G1 X56.855 Y159.773 E35.92114
G1 X56.714 Y158.846 E35.95233
G1 X56.654 Y157.957 E35.98196
G1 X56.641 Y157.327 E36.00292
G1 X56.641 Y78.343 E38.62994
G1 X56.651 Y77.529 E38.65701
G1 X56.704 Y76.593 E38.6882
G1 X56.836 Y75.664 E38.7194
G1 X57.047 Y74.75 E38.7506
G1 X57.335 Y73.858 E38.78178
G1 X57.698 Y72.993 E38.81298
G1 X58.133 Y72.162 E38.84418
G1 X58.637 Y71.372 E38.87534
G1 X59.207 Y70.627 E38.90654
G1 X59.839 Y69.933 E38.93776
G1 X60.527 Y69.296 E38.96895
G1 X61.267 Y68.72 E39.00014
G1 X62.053 Y68.208 E39.03134
G1 X62.88 Y67.766 E39.06253
G1 X63.742 Y67.396 E39.09373
G1 X64.632 Y67.1 E39.12492
G1 X65.544 Y66.882 E39.15611
G1 X66.471 Y66.741 E39.1873
G1 X67.342 Y66.682 E39.21633
G1 X67.971 Y66.669 E39.23726
G1 X166.934 Y66.669 E42.52878
G1 X167.092 Y66.67 E42.53404
G1 X167.79 Y66.68 E42.55725
G1 F1500 E36.05725
;MESH:3f50aacc-59cc-4583-812d-afb2e2fd0830.stl
G0 F6000 X166.831 Y77.004
G0 X166.831 Y78.479
G0 X166.859 Y156.887
G0 X68.241 Y157.069
;TYPE:WALL-INNER
G1 F1500 E42.55725
G1 F1200 X68.241 Y78.269 E45.17815
G1 X167.041 Y78.269 E48.46425
G1 X167.041 Y157.069 E51.08515
G1 X68.241 Y157.069 E54.37125
G0 F6000 X67.841 Y157.469
;TYPE:WALL-OUTER
G1 F1200 X67.841 Y77.869 E57.01876
G1 X167.441 Y77.869 E60.33147
G1 X167.441 Y157.469 E62.97898
G1 X67.841 Y157.469 E66.29169
G0 F6000 X68.111 Y157.199
G0 X68.351 Y156.679
G0 X68.631 Y156.679
;TYPE:SKIN
G1 F1200 X68.631 Y78.659 E68.88664
G1 X166.651 Y78.659 E72.1468
G1 X166.651 Y156.679 E74.74176
G1 X68.631 Y156.679 E78.00191
G0 F6000 X69.403 Y156.518
G1 F1200 X68.79 Y155.906 E78.03072
G0 F6000 X68.79 Y155.34
G1 F1200 X69.968 Y156.518 E78.08613
G0 F6000 X70.534 Y156.518
G1 F1200 X68.79 Y154.775 E78.16814
G0 F6000 X68.79 Y154.209
G1 F1200 X71.1 Y156.518 E78.27677
G0 F6000 X71.665 Y156.518
G1 F1200 X68.79 Y153.643 E78.41201
G0 F6000 X68.79 Y153.078
G1 F1200 X72.231 Y156.518 E78.57384
G0 F6000 X72.797 Y156.518
G1 F1200 X68.79 Y152.512 E78.76229
G0 F6000 X68.79 Y151.946
G1 F1200 X73.363 Y156.518 E78.97737
G0 F6000 X73.928 Y156.518
G1 F1200 X68.79 Y151.38 E79.21904
G0 F6000 X68.79 Y150.815
G1 F1200 X74.494 Y156.518 E79.48732
G0 F6000 X75.06 Y156.518
G1 F1200 X68.79 Y150.249 E79.78222
G0 F6000 X68.79 Y149.683
G1 F1200 X75.625 Y156.518 E80.10371
G0 F6000 X76.191 Y156.518
G1 F1200 X68.79 Y149.118 E80.45181
G0 F6000 X68.79 Y148.552
G1 F1200 X76.757 Y156.518 E80.82653
G0 F6000 X77.322 Y156.518
G1 F1200 X68.79 Y147.986 E81.22785
G0 F6000 X68.79 Y147.421
G1 F1200 X77.888 Y156.518 E81.65577
G0 F6000 X78.454 Y156.518
G1 F1200 X68.79 Y146.855 E82.11031
G0 F6000 X68.79 Y146.289
G1 F1200 X79.019 Y156.518 E82.59145
G0 F6000 X79.585 Y156.518
G1 F1200 X68.79 Y145.724 E83.09919
G0 F6000 X68.79 Y145.158
G1 F1200 X80.151 Y156.518 E83.63355
G0 F6000 X80.716 Y156.518
G1 F1200 X68.79 Y144.592 E84.19451
G0 F6000 X68.79 Y144.027
G1 F1200 X81.282 Y156.518 E84.78208
G0 F6000 X81.848 Y156.518
G1 F1200 X68.79 Y143.461 E85.39626
G0 F6000 X68.79 Y142.895
G1 F1200 X82.414 Y156.518 E86.03707
G0 F6000 X82.979 Y156.518
G1 F1200 X68.79 Y142.329 E86.70448
G0 F6000 X68.79 Y141.764
G1 F1200 X83.545 Y156.518 E87.39848
G0 F6000 X84.111 Y156.518
G1 F1200 X68.79 Y141.198 E88.11911
G0 F6000 X68.79 Y140.632
G1 F1200 X84.676 Y156.518 E88.86634
G0 F6000 X85.242 Y156.518
G1 F1200 X68.79 Y140.067 E89.64017
G0 F6000 X68.79 Y139.501
G1 F1200 X85.808 Y156.518 E90.44062
G0 F6000 X86.373 Y156.518
G1 F1200 X68.79 Y138.935 E91.26767
G0 F6000 X68.79 Y138.37
G1 F1200 X86.939 Y156.518 E92.12132
G0 F6000 X87.505 Y156.518
G1 F1200 X68.79 Y137.804 E93.00159
G0 F6000 X68.79 Y137.238
G1 F1200 X88.07 Y156.518 E93.90846
G0 F6000 X88.636 Y156.518
G1 F1200 X68.79 Y136.673 E94.84194
G0 F6000 X68.79 Y136.107
G1 F1200 X89.202 Y156.518 E95.80203
G0 F6000 X89.767 Y156.518
G1 F1200 X68.79 Y135.541 E96.78872
G0 F6000 X68.79 Y134.976
G1 F1200 X90.333 Y156.518 E97.80202
G0 F6000 X90.899 Y156.518
G1 F1200 X68.79 Y134.41 E98.84193
G0 F6000 X68.79 Y133.844
G1 F1200 X91.464 Y156.518 E99.90845
G0 F6000 X92.03 Y156.518
G1 F1200 X68.79 Y133.279 E101.00156
G0 F6000 X68.79 Y132.713
G1 F1200 X92.596 Y156.518 E102.1213
G0 F6000 X93.162 Y156.518
G1 F1200 X68.79 Y132.147 E103.26766
G0 F6000 X68.79 Y131.581
G1 F1200 X93.727 Y156.518 E104.44062
G0 F6000 X94.293 Y156.518
G1 F1200 X68.79 Y131.016 E105.64018
G0 F6000 X68.79 Y130.45
G1 F1200 X94.859 Y156.518 E106.86636
G0 F6000 X95.424 Y156.518
G1 F1200 X68.79 Y129.884 E108.11915
G0 F6000 X68.79 Y129.319
G1 F1200 X95.99 Y156.518 E109.39853
G0 F6000 X96.556 Y156.518
G1 F1200 X68.79 Y128.753 E110.70453
G0 F6000 X68.79 Y128.187
G1 F1200 X97.121 Y156.518 E112.03713
G0 F6000 X97.687 Y156.518
G1 F1200 X68.79 Y127.622 E113.39634
G0 F6000 X68.79 Y127.056
G1 F1200 X98.253 Y156.518 E114.78216
G0 F6000 X98.818 Y156.518
G1 F1200 X68.79 Y126.49 E116.19459
G0 F6000 X68.79 Y125.925
G1 F1200 X99.384 Y156.518 E117.63361
G0 F6000 X99.95 Y156.518
G1 F1200 X68.79 Y125.359 E119.09926
G0 F6000 X68.79 Y124.793
G1 F1200 X100.515 Y156.518 E120.59151
G0 F6000 X101.081 Y156.518
G1 F1200 X68.79 Y124.228 E122.11035
G0 F6000 X68.79 Y123.662
G1 F1200 X101.647 Y156.518 E123.65582
G0 F6000 X102.212 Y156.518
G1 F1200 X68.79 Y123.096 E125.22789
G0 F6000 X68.79 Y122.53
G1 F1200 X102.778 Y156.518 E126.82658
G0 F6000 X103.344 Y156.518
G1 F1200 X68.79 Y121.965 E128.45187
G0 F6000 X68.79 Y121.399
G1 F1200 X103.91 Y156.518 E130.10379
G0 F6000 X104.475 Y156.518
G1 F1200 X68.79 Y120.833 E131.7823
G0 F6000 X68.79 Y120.268
G1 F1200 X105.041 Y156.518 E133.48741
G0 F6000 X105.607 Y156.518
G1 F1200 X68.79 Y119.702 E135.21915
G0 F6000 X68.79 Y119.136
G1 F1200 X106.172 Y156.518 E136.97748
G0 F6000 X106.738 Y156.518
G1 F1200 X68.79 Y118.571 E138.76241
G0 F6000 X68.79 Y118.005
G1 F1200 X107.304 Y156.518 E140.57397
G0 F6000 X107.869 Y156.518
G1 F1200 X68.79 Y117.439 E142.41213
G0 F6000 X68.79 Y116.874
G1 F1200 X108.435 Y156.518 E144.27688
G0 F6000 X109.001 Y156.518
G1 F1200 X68.79 Y116.308 E146.16826
G0 F6000 X68.79 Y115.742
G1 F1200 X109.566 Y156.518 E148.08624
G0 F6000 X110.132 Y156.518
G1 F1200 X68.79 Y115.177 E150.03082
G0 F6000 X68.79 Y114.611
G1 F1200 X110.698 Y156.518 E152.00202
G0 F6000 X111.263 Y156.518
G1 F1200 X68.79 Y114.045 E153.99982
G0 F6000 X68.79 Y113.48
G1 F1200 X111.829 Y156.518 E156.02422
G0 F6000 X112.395 Y156.518
G1 F1200 X68.79 Y112.914 E158.07524
G0 F6000 X68.79 Y112.348
G1 F1200 X112.961 Y156.518 E160.15288
G0 F6000 X113.526 Y156.518
G1 F1200 X68.79 Y111.782 E162.25713
G0 F6000 X68.79 Y111.217
G1 F1200 X114.092 Y156.518 E164.38797
G0 F6000 X114.658 Y156.518
G1 F1200 X68.79 Y110.651 E166.54544
G0 F6000 X68.79 Y110.085
G1 F1200 X115.223 Y156.518 E168.7295
G0 F6000 X115.789 Y156.518
G1 F1200 X68.79 Y109.52 E170.94017
G0 F6000 X68.79 Y108.954
G1 F1200 X116.355 Y156.518 E173.17746
G0 F6000 X116.92 Y156.518
G1 F1200 X68.79 Y108.388 E175.44135
G0 F6000 X68.79 Y107.823
G1 F1200 X117.486 Y156.518 E177.73183
G0 F6000 X118.052 Y156.518
G1 F1200 X68.79 Y107.257 E180.04894
G0 F6000 X68.79 Y106.691
G1 F1200 X118.617 Y156.518 E182.39265
G0 F6000 X119.183 Y156.518
G1 F1200 X68.79 Y106.126 E184.76296
G0 F6000 X68.79 Y105.56
G1 F1200 X119.749 Y156.518 E187.15989
G0 F6000 X120.314 Y156.518
G1 F1200 X68.79 Y104.994 E189.58342
G0 F6000 X68.79 Y104.429
G1 F1200 X120.88 Y156.518 E192.03355
G0 F6000 X121.446 Y156.518
G1 F1200 X68.79 Y103.863 E194.51031
G0 F6000 X68.79 Y103.297
G1 F1200 X122.011 Y156.518 E197.01366
G0 F6000 X122.577 Y156.518
G1 F1200 X68.79 Y102.732 E199.54361
G0 F6000 X68.79 Y102.166
G1 F1200 X123.143 Y156.518 E202.10019
G0 F6000 X123.709 Y156.518
G1 F1200 X68.79 Y101.6 E204.68338
G0 F6000 X68.79 Y101.034
G1 F1200 X124.274 Y156.518 E207.29318
G0 F6000 X124.84 Y156.518
G1 F1200 X68.79 Y100.469 E209.92958
G0 F6000 X68.79 Y99.903
G1 F1200 X125.406 Y156.518 E212.5926
G0 F6000 X125.971 Y156.518
G1 F1200 X68.79 Y99.337 E215.28222
G0 F6000 X68.79 Y98.772
G1 F1200 X126.537 Y156.518 E217.99844
G0 F6000 X127.103 Y156.518
G1 F1200 X68.79 Y98.206 E220.74128
G0 F6000 X68.79 Y97.64
G1 F1200 X127.668 Y156.518 E223.51072
G0 F6000 X128.234 Y156.518
G1 F1200 X68.79 Y97.075 E226.30676
G0 F6000 X68.79 Y96.509
G1 F1200 X128.8 Y156.518 E229.12942
G0 F6000 X129.365 Y156.518
G1 F1200 X68.79 Y95.943 E231.97868
G0 F6000 X68.79 Y95.378
G1 F1200 X129.931 Y156.518 E234.85454
G0 F6000 X130.497 Y156.518
G1 F1200 X68.79 Y94.812 E237.75703
G0 F6000 X68.79 Y94.246
G1 F1200 X131.062 Y156.518 E240.68611
G0 F6000 X131.628 Y156.518
G1 F1200 X68.79 Y93.681 E243.6418
G0 F6000 X68.79 Y93.115
G1 F1200 X132.194 Y156.518 E246.6241
G0 F6000 X132.76 Y156.518
G1 F1200 X68.79 Y92.549 E249.63303
