;FLAVOR:Marlin
;TIME:1800
;Filament used: 1.20654m
;Layer height: 0.2
;MINX:105.051
;MINY:79.822
;MINZ:0.2
;MAXX:141.149
;MAXY:155.164
;MAXZ:7.8
;Generated with Cura_SteamEngine 4.6.1
M140 S60
M105
M190 S60
M104 S200
M105
M109 S200
M82 ;absolute extrusion mode
; Ender 3 Custom Start G-code
G92 E0 ; Reset Extruder
G28 ; Home all axes
G1 Z2.0 F3000 ; Move Z Axis up little to prevent scratching of Heat Bed
G1 X0.1 Y20 Z0.3 F5000.0 ; Move to start position
G1 X0.1 Y200.0 Z0.3 F1500.0 E15 ; Draw the first line
G1 X0.4 Y200.0 Z0.3 F5000.0 ; Move to side a little
G1 X0.4 Y20 Z0.3 F1500.0 E30 ; Draw the second line
G92 E0 ; Reset Extruder
G1 Z2.0 F3000 ; Move Z Axis up little to prevent scratching of Heat Bed
G1 X5 Y20 Z0.3 F5000.0 ; Move over to prevent blob squish
G92 E0
G92 E0
G1 F1500 E-6.5
;LAYER_COUNT:39
;LAYER:0
M107
G0 F6000 X123.312 Y80.645 Z0.2
;TYPE:SKIRT
G1 F1500 E0
G1 F1200 X123.57 Y80.656 E0.00859
G1 X124.027 Y80.686 E0.02382
G1 X124.335 Y80.713 E0.0341
G1 X124.757 Y80.759 E0.04822
G1 X125.513 Y80.866 E0.07362
G1 X126.016 Y80.957 E0.09062
G1 X126.39 Y81.034 E0.10332
G1 X126.853 Y81.14 E0.11912
G1 X127.202 Y81.229 E0.1311
G1 X127.641 Y81.352 E0.14626
G1 X128.205 Y81.528 E0.16591
G1 X128.406 Y81.596 E0.17297
G1 X128.79 Y81.735 E0.18655
G1 X129.168 Y81.88 E0.20002
G1 X129.758 Y82.125 E0.22127
G1 X130.215 Y82.333 E0.23797
G1 X130.622 Y82.532 E0.25303
G1 X130.957 Y82.706 E0.26559
G1 X131.537 Y83.029 E0.28767
G1 X132.026 Y83.322 E0.30663
G1 X132.452 Y83.597 E0.3235
G1 X132.953 Y83.944 E0.34377
G1 X133.603 Y84.431 E0.37078
G1 X133.928 Y84.696 E0.38473
G1 X134.215 Y84.939 E0.39723
G1 X134.696 Y85.369 E0.41869
G1 X135.114 Y85.769 E0.43794
G1 X135.421 Y86.083 E0.45254
G1 X135.665 Y86.343 E0.4644
G1 X136.087 Y86.818 E0.48553
G1 X136.372 Y87.161 E0.50037
G1 X136.619 Y87.472 E0.51358
G1 X136.959 Y87.925 E0.53241
G1 X137.213 Y88.284 E0.54704
G1 X137.574 Y88.826 E0.5687
G1 X137.834 Y89.249 E0.58522
G1 X138.013 Y89.557 E0.59706
G1 X138.185 Y89.864 E0.60877
G1 X138.312 Y90.101 E0.61771
G1 X138.505 Y90.481 E0.63189
G1 X138.649 Y90.779 E0.64289
G1 X138.831 Y91.177 E0.65745
G1 X138.941 Y91.432 E0.66669
G1 X139.113 Y91.857 E0.68194
G1 X139.268 Y92.266 E0.69648
G1 X139.46 Y92.821 E0.71602
G1 X139.582 Y93.209 E0.72954
G1 X139.726 Y93.709 E0.74685
G1 X139.824 Y94.087 E0.75984
G1 X139.971 Y94.73 E0.78178
G1 X140.067 Y95.229 E0.79868
G1 X140.14 Y95.679 E0.81384
G1 X140.194 Y96.067 E0.82687
G1 X140.255 Y96.62 E0.84537
G1 X140.291 Y97.049 E0.85969
G1 X140.325 Y97.709 E0.88167
G1 X140.349 Y99.066 E0.92682
G1 X140.348 Y138.567 E2.24062
G1 X140.336 Y139.393 E2.2681
G1 X140.304 Y140.064 E2.29044
G1 X140.258 Y140.635 E2.3095
G1 X140.184 Y141.291 E2.33145
G1 X140.146 Y141.551 E2.34019
G1 X140.015 Y142.267 E2.3644
G1 X139.918 Y142.708 E2.37942
G1 X139.601 Y143.835 E2.41836
G1 X139.439 Y144.306 E2.43492
G1 X139.11 Y145.141 E2.46478
G1 X138.929 Y145.547 E2.47956
G1 X138.643 Y146.137 E2.50137
G1 X138.539 Y146.335 E2.50881
G1 X138.191 Y146.946 E2.53219
G1 X137.94 Y147.353 E2.5481
G1 X137.56 Y147.925 E2.57094
G1 X137.358 Y148.208 E2.5825
G1 X136.578 Y149.171 E2.62372
G1 X136.11 Y149.682 E2.64677
G1 X135.147 Y150.605 E2.69113
G1 X134.748 Y150.94 E2.70846
G1 X134.073 Y151.459 E2.73678
G1 X133.787 Y151.661 E2.74843
G1 X133.161 Y152.07 E2.7733
G1 X132.772 Y152.304 E2.7884
G1 X131.772 Y152.833 E2.82602
G1 X131.243 Y153.076 E2.84538
G1 X130.389 Y153.422 E2.87603
G1 X129.954 Y153.576 E2.89138
G1 X129.322 Y153.777 E2.91344
G1 X129.06 Y153.851 E2.92249
G1 X127.901 Y154.107 E2.96197
G1 X127.283 Y154.206 E2.98279
G1 X126.399 Y154.308 E3.01238
G1 X126.022 Y154.335 E3.02496
G1 X125.384 Y154.361 E3.04619
G1 X125.049 Y154.364 E3.05734
G1 X124.401 Y154.349 E3.07889
G1 X124.2 Y154.338 E3.08559
G1 X123.423 Y154.265 E3.11155
G1 X122.915 Y154.198 E3.12859
G1 X121.743 Y153.973 E3.16828
G1 X121.171 Y153.828 E3.18791
G1 X120.344 Y153.581 E3.21661
G1 X119.916 Y153.433 E3.23168
G1 X118.682 Y152.913 E3.27622
G1 X118.025 Y152.584 E3.30065
G1 X116.979 Y151.981 E3.34081
G1 X116.674 Y151.78 E3.35296
G1 X115.928 Y151.238 E3.38363
G1 X115.538 Y150.927 E3.40022
G1 X114.979 Y150.448 E3.4247
G1 X114.629 Y150.125 E3.44055
G1 X114.202 Y149.71 E3.46035
G1 X113.684 Y149.173 E3.48517
G1 X113.269 Y148.729 E3.50538
G1 X112.805 Y148.218 E3.52834
G1 X112.228 Y147.523 E3.55838
G1 X111.715 Y146.78 E3.58841
G1 X111.269 Y145.994 E3.61847
G1 X110.895 Y145.172 E3.64851
G1 X110.595 Y144.321 E3.67852
G1 X110.371 Y143.446 E3.70856
G1 X110.226 Y142.554 E3.73862
G1 X110.168 Y141.859 E3.76181
G1 X110.152 Y141.532 E3.7727
G1 X110.14 Y141.058 E3.78847
G1 X110.11 Y128.468 E4.20722
G1 X110.114 Y108.382 E4.87528
G1 X110.104 Y100.415 E5.14026
G1 X110.117 Y91.379 E5.4408
G1 X110.127 Y90.695 E5.46356
G1 X110.18 Y89.793 E5.49361
G1 X110.313 Y88.9 E5.52364
G1 X110.524 Y88.022 E5.55367
G1 X110.812 Y87.166 E5.58371
G1 X111.175 Y86.339 E5.61375
G1 X111.609 Y85.547 E5.64379
G1 X112.112 Y84.797 E5.67382
G1 X112.679 Y84.094 E5.70386
G1 X113.306 Y83.444 E5.7339
G1 X113.988 Y82.852 E5.76394
G1 X114.72 Y82.323 E5.79398
G1 X115.495 Y81.86 E5.824
G1 X116.309 Y81.468 E5.85405
G1 X117.154 Y81.15 E5.88408
G1 X118.024 Y80.907 E5.91412
G1 X118.912 Y80.742 E5.94417
G1 X120.109 Y80.646 E5.98411
G1 X121.358 Y80.622 E6.02566
G1 X122.052 Y80.623 E6.04874
G1 X123.312 Y80.645 E6.09065
G0 F6000 X123.33 Y80.246
G1 F1200 X123.588 Y80.257 E6.09924
G1 X124.062 Y80.287 E6.11504
G1 X124.37 Y80.314 E6.12532
G1 X124.808 Y80.362 E6.13998
G1 X125.574 Y80.471 E6.16571
G1 X126.097 Y80.565 E6.18338
G1 X126.471 Y80.642 E6.19608
G1 X126.952 Y80.753 E6.2125
G1 X127.301 Y80.842 E6.22448
G1 X127.757 Y80.969 E6.24023
G1 X128.011 Y81.046 E6.24905
G1 X128.534 Y81.217 E6.26735
G1 X128.933 Y81.361 E6.28146
G1 X129.311 Y81.506 E6.29493
G1 X129.916 Y81.757 E6.31671
G1 X130.384 Y81.97 E6.33382
G1 X130.806 Y82.177 E6.34945
G1 X131.141 Y82.351 E6.36201
G1 X131.51 Y82.552 E6.37598
G1 X132.004 Y82.839 E6.39498
G1 X132.235 Y82.98 E6.40398
G1 X132.678 Y83.266 E6.42152
G1 X132.913 Y83.426 E6.43098
G1 X133.42 Y83.789 E6.45172
G1 X133.848 Y84.116 E6.46963
G1 X134.187 Y84.39 E6.48413
G1 X134.474 Y84.633 E6.49664
G1 X134.967 Y85.074 E6.51864
G1 X135.393 Y85.483 E6.53828
G1 X135.712 Y85.809 E6.55345
G1 X135.956 Y86.069 E6.56531
G1 X136.389 Y86.556 E6.58698
G1 X136.686 Y86.913 E6.60243
G1 X136.933 Y87.224 E6.61564
G1 X137.285 Y87.694 E6.63517
G1 X137.539 Y88.053 E6.6498
G1 X137.781 Y88.409 E6.66411
G1 X137.91 Y88.608 E6.672
G1 X138.18 Y89.048 E6.68917
G1 X138.359 Y89.356 E6.70102
G1 X138.664 Y89.912 E6.72211
G1 X138.865 Y90.307 E6.73685
G1 X139.009 Y90.605 E6.74786
G1 X139.198 Y91.018 E6.76297
G1 X139.308 Y91.273 E6.7722
G1 X139.487 Y91.716 E6.7881
G1 X139.642 Y92.125 E6.80264
G1 X139.842 Y92.701 E6.82292
G1 X139.964 Y93.089 E6.83645
G1 X140.113 Y93.609 E6.85444
G1 X140.211 Y93.987 E6.86743
G1 X140.362 Y94.647 E6.88995
G1 X140.46 Y95.156 E6.90719
G1 X140.536 Y95.624 E6.92296
G1 X140.59 Y96.012 E6.93599
G1 X140.654 Y96.587 E6.95523
G1 X140.69 Y97.016 E6.96955
G1 X140.725 Y97.702 E6.9924
G1 X140.749 Y99.066 E7.03777
G1 X140.748 Y138.573 E8.35178
G1 X140.736 Y139.399 E8.37925
G1 X140.703 Y140.096 E8.40246
G1 X140.657 Y140.667 E8.42151
G1 X140.58 Y141.349 E8.44434
G1 X140.542 Y141.609 E8.45308
G1 X140.406 Y142.353 E8.47824
G1 X140.309 Y142.794 E8.49326
G1 X139.98 Y143.965 E8.53371
G1 X139.818 Y144.436 E8.55028
G1 X139.475 Y145.304 E8.58132
G1 X139.294 Y145.71 E8.5961
G1 X138.997 Y146.323 E8.61876
G1 X138.893 Y146.521 E8.6262
G1 X138.531 Y147.156 E8.65051
G1 X138.28 Y147.563 E8.66641
G1 X137.886 Y148.157 E8.69012
G1 X137.684 Y148.44 E8.70169
G1 X136.873 Y149.441 E8.74454
G1 X136.405 Y149.952 E8.76758
G1 X135.754 Y150.604 E8.79823
G1 X135.404 Y150.911 E8.81371
G1 X135.005 Y151.246 E8.83104
G1 X134.304 Y151.786 E8.86047
G1 X134.018 Y151.988 E8.87212
G1 X133.367 Y152.413 E8.89797
G1 X132.978 Y152.647 E8.91307
G1 X131.939 Y153.196 E8.95216
G1 X131.41 Y153.439 E8.97152
G1 X130.523 Y153.799 E9.00336
G1 X130.088 Y153.953 E9.01871
G1 X129.431 Y154.162 E9.04164
G1 X129.169 Y154.236 E9.05069
G1 X127.965 Y154.502 E9.0917
G1 X127.347 Y154.601 E9.11252
G1 X126.427 Y154.707 E9.14332
G1 X126.05 Y154.734 E9.15589
G1 X125.388 Y154.761 E9.17793
G1 X125.053 Y154.764 E9.18907
G1 X124.379 Y154.748 E9.2115
G1 X124.178 Y154.737 E9.21819
G1 X123.371 Y154.662 E9.24515
G1 X122.863 Y154.595 E9.26219
G1 X121.644 Y154.361 E9.30347
G1 X121.072 Y154.216 E9.3231
G1 X120.213 Y153.959 E9.35292
G1 X119.785 Y153.811 E9.36799
G1 X118.929 Y153.473 E9.3986
G1 X118.503 Y153.271 E9.41428
G1 X117.846 Y152.942 E9.43871
G1 X116.759 Y152.315 E9.48045
G1 X116.454 Y152.114 E9.4926
G1 X115.678 Y151.551 E9.52449
G1 X115.288 Y151.24 E9.54108
G1 X114.708 Y150.742 E9.56651
G1 X114.358 Y150.419 E9.58235
G1 X113.746 Y149.817 E9.6109
G1 X112.972 Y148.998 E9.64838
G1 X112.508 Y148.487 E9.67134
G1 X111.92 Y147.779 E9.70195
G1 X111.395 Y147.023 E9.73256
G1 X110.937 Y146.224 E9.76319
G1 X110.551 Y145.388 E9.79382
G1 X110.238 Y144.522 E9.82444
G1 X110.002 Y143.632 E9.85507
G1 X109.844 Y142.725 E9.88569
G1 X109.769 Y141.879 E9.91394
G1 X109.753 Y141.552 E9.92483
G1 X109.74 Y141.059 E9.94123
G1 X109.71 Y128.469 E10.35998
G1 X109.714 Y108.382 E11.02807
G1 X109.704 Y100.415 E11.29306
G1 X109.717 Y91.373 E11.59379
G1 X109.727 Y90.689 E11.61655
G1 X109.781 Y89.77 E11.64717
G1 X109.914 Y88.859 E11.67779
G1 X110.125 Y87.963 E11.7084
G1 X110.414 Y87.089 E11.73902
G1 X110.777 Y86.243 E11.76964
G1 X111.212 Y85.431 E11.80028
G1 X111.716 Y84.661 E11.83089
G1 X112.285 Y83.937 E11.86151
G1 X112.915 Y83.266 E11.89213
G1 X113.6 Y82.651 E11.92274
G1 X114.337 Y82.098 E11.95339
G1 X115.118 Y81.612 E11.98399
G1 X115.939 Y81.195 E12.01461
G1 X116.793 Y80.85 E12.04525
G1 X117.673 Y80.581 E12.07585
G1 X118.574 Y80.39 E12.10649
G1 X119.487 Y80.277 E12.13708
G1 X120.1 Y80.246 E12.1575
G1 X121.358 Y80.222 E12.19935
G1 X122.058 Y80.223 E12.22263
G1 X123.33 Y80.246 E12.26494
G0 F6000 X123.347 Y79.846
G1 F1200 X123.605 Y79.857 E12.27353
G1 X124.097 Y79.889 E12.28993
G1 X124.405 Y79.916 E12.30021
G1 X124.86 Y79.965 E12.31543
G1 X125.635 Y80.075 E12.34147
G1 X126.177 Y80.173 E12.35979
G1 X126.551 Y80.25 E12.37249
G1 X127.051 Y80.365 E12.38955
G1 X127.4 Y80.454 E12.40153
G1 X127.873 Y80.586 E12.41787
G1 X128.127 Y80.663 E12.42669
G1 X128.662 Y80.838 E12.44542
G1 X129.077 Y80.988 E12.46009
G1 X129.455 Y81.133 E12.47356
G1 X130.075 Y81.39 E12.49588
G1 X130.552 Y81.607 E12.51331
G1 X130.99 Y81.822 E12.52954
G1 X131.325 Y81.996 E12.54209
G1 X131.934 Y82.334 E12.56526
G1 X132.443 Y82.639 E12.585
G1 X132.903 Y82.935 E12.60319
G1 X133.138 Y83.095 E12.61265
G1 X133.656 Y83.466 E12.63384
G1 X134.094 Y83.8 E12.65216
G1 X134.445 Y84.085 E12.6672
G1 X134.732 Y84.328 E12.6797
G1 X135.237 Y84.779 E12.70222
G1 X135.673 Y85.197 E12.72231
G1 X136.004 Y85.536 E12.73807
G1 X136.248 Y85.796 E12.74993
G1 X136.692 Y86.294 E12.77212
G1 X136.999 Y86.664 E12.78811
G1 X137.246 Y86.975 E12.80132
G1 X137.612 Y87.463 E12.82161
G1 X137.866 Y87.822 E12.83624
G1 X138.245 Y88.391 E12.85898
G1 X138.526 Y88.847 E12.87679
G1 X138.705 Y89.155 E12.88864
G1 X139.017 Y89.723 E12.91019
G1 X139.225 Y90.133 E12.92548
G1 X139.369 Y90.431 E12.93649
G1 X139.565 Y90.86 E12.95218
G1 X139.675 Y91.115 E12.96142
G1 X139.861 Y91.574 E12.97789
G1 X140.016 Y91.983 E12.99244
G1 X140.223 Y92.582 E13.01351
G1 X140.345 Y92.97 E13.02704
G1 X140.5 Y93.508 E13.04566
G1 X140.598 Y93.886 E13.05865
G1 X140.753 Y94.564 E13.08178
G1 X140.853 Y95.084 E13.0994
G1 X140.932 Y95.569 E13.11574
G1 X140.986 Y95.957 E13.12877
G1 X141.052 Y96.553 E13.14871
G1 X141.088 Y96.982 E13.16303
G1 X141.125 Y97.694 E13.18675
G1 X141.149 Y99.066 E13.23239
G1 X141.148 Y138.579 E14.54659
G1 X141.136 Y139.405 E14.57407
G1 X141.101 Y140.128 E14.59814
G1 X141.055 Y140.699 E14.6172
G1 X140.975 Y141.407 E14.6409
G1 X140.937 Y141.667 E14.64964
G1 X140.796 Y142.439 E14.67574
G1 X140.699 Y142.88 E14.69076
G1 X140.358 Y144.095 E14.73273
G1 X140.196 Y144.566 E14.74929
G1 X139.841 Y145.467 E14.7815
G1 X139.66 Y145.873 E14.79629
G1 X139.351 Y146.509 E14.81981
G1 X139.247 Y146.707 E14.82724
G1 X138.872 Y147.366 E14.85246
G1 X138.621 Y147.773 E14.86837
G1 X138.211 Y148.39 E14.89301
G1 X138.009 Y148.673 E14.90457
G1 X137.168 Y149.711 E14.949
G1 X136.7 Y150.222 E14.97205
G1 X136.038 Y150.886 E15.00324
G1 X135.661 Y151.217 E15.01992
G1 X135.262 Y151.552 E15.03725
G1 X134.535 Y152.113 E15.06779
G1 X134.249 Y152.315 E15.07944
G1 X133.573 Y152.756 E15.10628
G1 X133.184 Y152.99 E15.12138
G1 X132.106 Y153.56 E15.16194
G1 X131.577 Y153.803 E15.1813
G1 X130.656 Y154.176 E15.21435
G1 X130.221 Y154.33 E15.2297
G1 X129.54 Y154.547 E15.25347
G1 X129.278 Y154.621 E15.26253
G1 X128.028 Y154.897 E15.3051
G1 X127.41 Y154.996 E15.32592
G1 X126.456 Y155.106 E15.35786
G1 X126.079 Y155.133 E15.37043
G1 X125.392 Y155.161 E15.3933
G1 X125.057 Y155.164 E15.40444
G1 X124.357 Y155.148 E15.42773
G1 X124.156 Y155.137 E15.43443
G1 X123.319 Y155.059 E15.46239
G1 X122.811 Y154.992 E15.47943
G1 X121.546 Y154.749 E15.52227
G1 X120.974 Y154.604 E15.5419
G1 X120.082 Y154.337 E15.57287
G1 X119.654 Y154.189 E15.58793
G1 X118.782 Y153.845 E15.61911
G1 X118.324 Y153.629 E15.63595
G1 X117.667 Y153.3 E15.66039
G1 X116.539 Y152.649 E15.70371
G1 X116.234 Y152.448 E15.71586
G1 X115.429 Y151.863 E15.74895
G1 X115.039 Y151.552 E15.76554
G1 X114.437 Y151.036 E15.79192
G1 X114.087 Y150.713 E15.80776
G1 X113.638 Y150.277 E15.82857
G1 X113.1 Y149.721 E15.85431
G1 X112.676 Y149.267 E15.87497
G1 X112.212 Y148.756 E15.89792
G1 X111.612 Y148.035 E15.92912
G1 X111.075 Y147.266 E15.96032
G1 X110.606 Y146.454 E15.99151
G1 X110.208 Y145.605 E16.02269
G1 X109.883 Y144.725 E16.05389
G1 X109.635 Y143.821 E16.08507
G1 X109.464 Y142.898 E16.11629
G1 X109.369 Y141.899 E16.14967
G1 X109.353 Y141.572 E16.16056
G1 X109.34 Y141.06 E16.17759
G1 X109.31 Y128.47 E16.59634
G1 X109.314 Y108.382 E17.26447
G1 X109.304 Y100.416 E17.52942
G1 X109.317 Y91.367 E17.83039
G1 X109.327 Y90.683 E17.85314
G1 X109.381 Y89.747 E17.88433
G1 X109.514 Y88.819 E17.91551
G1 X109.726 Y87.905 E17.94671
G1 X110.015 Y87.013 E17.9779
G1 X110.379 Y86.148 E18.00911
G1 X110.815 Y85.318 E18.0403
G1 X111.32 Y84.528 E18.07148
G1 X111.891 Y83.784 E18.10268
G1 X112.523 Y83.091 E18.13387
G1 X113.212 Y82.454 E18.16508
G1 X113.952 Y81.879 E18.19625
G1 X114.739 Y81.368 E18.22746
G1 X115.567 Y80.927 E18.25866
G1 X116.429 Y80.558 E18.28985
G1 X117.319 Y80.263 E18.32103
G1 X118.231 Y80.045 E18.35222
G1 X119.159 Y79.906 E18.38343
G1 X120.092 Y79.846 E18.41453
G1 X121.358 Y79.822 E18.45664
G1 X122.063 Y79.823 E18.48009
G1 X123.347 Y79.846 E18.5228
G1 F1500 E12.0228
;MESH:b5ce4b11-722e-4edf-b16c-57d9e5d43b3f.stl
G0 F6000 X123.146 Y90.174
G0 X123.056 Y91.254
G0 X121.098 Y91.604
G0 X121.114 Y141.054
G0 X122.518 Y142.49
G0 X123.214 Y142.929
G0 X124.933 Y143.573
;TYPE:WALL-INNER
G1 F1500 E18.5228
G1 F1200 X124.643 Y143.548 E18.53248
G1 X124.324 Y143.5 E18.54321
G1 X124.064 Y143.442 E18.55207
G1 X123.773 Y143.357 E18.56216
G1 X123.476 Y143.248 E18.57268
G1 X123.212 Y143.129 E18.58231
G1 X122.952 Y142.99 E18.59212
G1 X122.812 Y142.906 E18.59755
G1 X122.522 Y142.708 E18.60923
G1 X122.415 Y142.626 E18.61371
G1 X122.162 Y142.408 E18.62482
G1 X121.93 Y142.179 E18.63566
G1 X120.941 Y141.122 E18.68381
G1 X120.91 Y128.444 E19.10548
G1 X120.914 Y108.384 E19.77268
G1 X120.904 Y100.279 E20.04225
G1 X120.916 Y91.422 E20.33684
G1 X122.632 Y91.422 E20.39391
G1 X123.038 Y91.434 E20.40742
G1 X123.422 Y91.465 E20.42023
G1 X123.814 Y91.522 E20.43341
G1 X124.179 Y91.594 E20.44578
G1 X124.55 Y91.69 E20.45853
G1 X124.927 Y91.81 E20.47169
G1 X125.288 Y91.948 E20.48454
G1 X125.652 Y92.111 E20.49781
G1 X126.001 Y92.291 E20.51087
G1 X126.315 Y92.477 E20.52301
G1 X126.641 Y92.694 E20.53603
G1 X126.943 Y92.921 E20.5486
G1 X127.24 Y93.172 E20.56153
G1 X127.532 Y93.448 E20.57489
G1 X127.79 Y93.72 E20.58736
G1 X128.054 Y94.033 E20.60098
G1 X128.277 Y94.33 E20.61333
G1 X128.494 Y94.656 E20.62636
G1 X128.68 Y94.97 E20.6385
G1 X128.858 Y95.314 E20.65138
G1 X129.021 Y95.677 E20.66462
G1 X129.163 Y96.049 E20.67786
G1 X129.284 Y96.429 E20.69112
G1 X129.377 Y96.792 E20.70359
